images_breeze_svg/cmd/32/definedbname.svg

<svg viewBox="0 0 32 32" xmlns="http://www.w3.org/2000/svg"><path d="m4 4v24h9v-1-2-1-3-1-3-1-3-1-3h6 1 7 1v-5zm1 1h7v3h-7zm8 0h6v3h-6zm7 0h7v3h-7zm-15 4h7v3h-7zm0 4h7v3h-7zm11 3v12h1v-5l5-1v1l6-1-2-1 2-1-6-2v-1l-5-1zm-11 1h7v3h-7zm0 4h7v3h-7zm0 4h7v2h-7z" fill="#4d4d4d"/></svg>

<?xml version="1.0" encoding="UTF-8" standalone="no"?>
<svg
   xmlns:dc="http://purl.org/dc/elements/1.1/"
   xmlns:cc="http://creativecommons.org/ns#"
   xmlns:rdf="http://www.w3.org/1999/02/22-rdf-syntax-ns#"
   xmlns:svg="http://www.w3.org/2000/svg"
   xmlns="http://www.w3.org/2000/svg"
   xmlns:sodipodi="http://sodipodi.sourceforge.net/DTD/sodipodi-0.dtd"
   xmlns:inkscape="http://www.inkscape.org/namespaces/inkscape"
   viewBox="0 0 32 32"
   version="1.1"
   id="svg8"
   sodipodi:docname="definedbname.svg"
   inkscape:version="0.92.4 (unknown)"
   inkscape:export-filename="/home/rizmut/Dokumen/Rizmut/Github/libreoffice-style-breeze/images_breeze/cmd/32/definedbname.png"
   inkscape:export-xdpi="96"
   inkscape:export-ydpi="96">
  <metadata
     id="metadata14">
    <rdf:RDF>
      <cc:Work
         rdf:about="">
        <dc:format>image/svg+xml</dc:format>
        <dc:type
           rdf:resource="http://purl.org/dc/dcmitype/StillImage" />
        <dc:title></dc:title>
      </cc:Work>
    </rdf:RDF>
  </metadata>
  <defs
     id="defs12" />
  <sodipodi:namedview
     pagecolor="#ffffff"
     bordercolor="#666666"
     borderopacity="1"
     objecttolerance="10"
     gridtolerance="10"
     guidetolerance="10"
     inkscape:pageopacity="0"
     inkscape:pageshadow="2"
     inkscape:window-width="1360"
     inkscape:window-height="714"
     id="namedview10"
     showgrid="true"
     inkscape:zoom="14.75"
     inkscape:cx="6.3789731"
     inkscape:cy="16.6053"
     inkscape:window-x="0"
     inkscape:window-y="28"
     inkscape:window-maximized="1"
     inkscape:current-layer="svg8">
    <inkscape:grid
       type="xygrid"
       id="grid821" />
  </sodipodi:namedview>
  <path
     style="fill:#4d4d4d"
     d="M 4 4 L 4 28 L 13 28 L 13 27 L 13 25 L 13 24 L 13 21 L 13 20 L 13 17 L 13 16 L 13 13 L 13 12 L 13 9 L 19 9 L 20 9 L 27 9 L 28 9 L 28 4 L 4 4 z M 5 5 L 12 5 L 12 8 L 5 8 L 5 5 z M 13 5 L 19 5 L 19 8 L 13 8 L 13 5 z M 20 5 L 27 5 L 27 8 L 20 8 L 20 5 z M 5 9 L 12 9 L 12 12 L 5 12 L 5 9 z M 5 13 L 12 13 L 12 16 L 5 16 L 5 13 z M 16 16 L 16 28 L 17 28 L 17 23 L 22 22 L 22 23 L 28 22 L 26 21 L 28 20 L 22 18 L 22 17 L 17 16 L 16 16 z M 5 17 L 12 17 L 12 20 L 5 20 L 5 17 z M 5 21 L 12 21 L 12 24 L 5 24 L 5 21 z M 5 25 L 12 25 L 12 27 L 5 27 L 5 25 z "
     id="path4" />
</svg>
